rospo-icon-theme-classic-common/32x32/apps/com.github.philip-scott.wallpaperize.svg

<svg height="32" width="32" xmlns="http://www.w3.org/2000/svg"><path d="m30 27.611111v-22.2222221c0-.7694445-.6244-1.3888889-1.4-1.3888889h-25.2c-.7756 0-1.4.6194444-1.4 1.3888889v22.2222221c0 .769445.6244 1.388889 1.4 1.388889h25.2c.7756 0 1.4-.619444 1.4-1.388889z" opacity=".2"/><path d="m30 26.611111v-22.2222221c0-.7694445-.6244-1.3888889-1.4-1.3888889h-25.2c-.7756 0-1.4.6194444-1.4 1.3888889v22.2222221c0 .769445.6244 1.388889 1.4 1.388889h25.2c.7756 0 1.4-.619444 1.4-1.388889z" fill="#704774"/><rect height="13" opacity=".2" rx=".571" ry=".591" width="16" x="8" y="10"/><rect fill="#ce6ef0" height="13" rx=".571" ry=".591" width="16" x="8" y="9"/><path d="m9.484375 18c-.5057196 0-1.0011031.043888-1.484375.125v3.283203c0 .327364.2556942.591797.5722656.591797h8.4277344c-1.626947-2.451532-4.38749-4-7.515625-4z" fill="#ffb94b" fill-rule="evenodd"/><path d="m16.51823 9c-.0021.028099.0012.09918.01302.1244139.04112.08814.165029.1008741.322916.03174.140855-.061685.276009-.069598.300782-.016504.02477.053098-.02356.1267558-.108073.1637694-.201514.088252-.178887.1228741.303386.4532223.373359.2557454.445347.2639284.841145.091407.342142-.1491308.434623-.1527591.441407-.017771.005.098777.06762.1472252.149739.1155275.07803-.030121.05671.029231-.04688.1320309-.121955.121036-.142634.230743-.05859.309765.109877.103323.01012-.02554-.658854.267426-.857856.375691-1.675107.978118-2.187284 1.574219-.31871.370933-.917347 1.620363-.847657 1.769726.0195.04181.198544.0045.397135-.08252.296957-.130049.360138-.213899.35547-.474804l-.0052-.317383.149739.21328.151043.214552.123697-.392286c.115315-.36561.125948-.374964.175782-.145995.03309.152035.118479.240386.222656.233593.125648-.0082.162329.04717.148437.218359-.01691.208321.02091.211417.416667.03808.350476-.15349.424192-.26086.510201-.556055l.105468-.366894.14323.286914c.135248.272811.144473.274111.204426.03301.05493-.220837.0729-.232497.139323-.09014.05531.118529.164475.324505.397136.222612.299239-.131047.284025-.0868-.217448.660157-.295372.439966-.546464 1.263643-.761781 1.830664-.374736.986825-.77335 2.651313-.618489 2.583496.213851-.09366 1.112984-.880726 1.082031-.94707-.0199-.04264-.04188-.221948-.04948-.398633-.01368-.317992-.01223-.320064.175781-.143457.265493.249386.48063.11575.471354-.293263-.0083-.364122.127012-.521776.239583-.280566.05469.11722.102654.10243.270833-.07998.152871-.165806.170911-.295768.06901-.514162-.125552-.269088-.120091-.284552.08333-.176463.230307.12237.269793-.02947.168031-.247559-.03854-.08261.03851-.148872.223959-.19297.155249-.03691.279839-.03277.276042.0089-.06291.689514-.07441 2.350122-.01953 2.968164.06609.74468.440806 2.092601.566407 2.037597.03041-.01331.192305-.463615.359375-1.00039.193365-.621248.259502-1.028976.179687-1.123535-.09241-.109483-.06492-.176874.108073-.252637.272615-.119388.407475-.656884.210938-.841699-.0958-.09008-.0789-.127952.0612-.137109.242585-.01584.212948-.08118-.177084-.375781-.30782-.232497-.309131-.234609-.03255-.154883.154097.04441.311139.06734.348958.05077.108576-.04755-.09107-.403786-.235677-.420215-.07166-.0082-.153342-.06033-.179688-.116796-.03039-.06513.02823-.08276.160158-.04951.367915.09277.508418-.170918.261718-.491309-.119698-.155454-.281473-.313334-.359376-.35039-.09902-.0471-.05673-.08699.138021-.133301.169643-.04034.2562-.1099.223958-.179003-.02912-.06242.005-.108154.07422-.100293.06921.0079.159173-.185547.200521-.429103.04134-.243553.103325-.455558.13672-.470995.940379.948854 1.581684 5.082845 1.742698 7.728029h.200009v-6.026857c-.476508-.992188-.980028-1.845351-1.434895-2.30039-.569213-.569428-.595697-.652815-.16276-.524317.242439.07196.25859.05814.24479-.195508-.01414-.260094-.0051-.257157.214845.03682.179545.239971.383705.332426.945313.427831.07268.01234.124948.01863.192707.02919v-2.347363c-.01188.00005-.0232-.0014-.03515-.0013l-.5.0038.373698-.1663075c.05805-.025827.112105-.056395.161448-.087592v-.2577153c0-.079575-.01563-.1542729-.04296-.2234375-.0015-.00435-.0036-.00837-.0052-.012695-.088117-.2084235-.288661-.3541587-.523458-.3541587h-.845053l-1.078126.5230472-.0625-.3313479c-.007786-.0413862-.022772-.1417254-.035155-.1916993h-1.670573c.000497.00143.000389.00364 0 .00384-.0016.00065-.0077-.00228-.01302-.00384zm2.81901 3.037989c.111933.01442.129306.287027.0026.443066-.08333.10269-.180336.199437-.214844.214551-.08966.03926.06799-.603263.158855-.647462.01973-.0096.03739-.01222.05339-.01016z" opacity=".6"/><path d="m3.4003906 3c-.7756 0-1.4003906.6192274-1.4003906 1.3886719v1c0-.7694445.6247906-1.3886719 1.4003906-1.3886719h25.1992184c.7756 0 1.400391.6192274 1.400391 1.3886719v-1c0-.7694445-.624791-1.3886719-1.400391-1.3886719z" fill="#fff" opacity=".1"/><path d="m8.5722656 9c-.3165714 0-.5722656.2644333-.5722656.5917969v1.0000001c0-.327364.2556942-.591797.5722656-.591797h14.8554684c.316572 0 .572266.264433.572266.591797v-1.0000001c0-.3273636-.255694-.5917969-.572266-.5917969z" fill="#fff" opacity=".1"/></svg>

<svg xmlns="http://www.w3.org/2000/svg" width="32" height="32" version="1">
 <path style="opacity:0.2" d="M 30,27.611111 30,5.3888889 C 30,4.6194444 29.3756,4 28.6,4 L 3.4,4 C 2.6244,4 2,4.6194444 2,5.3888889 L 2,27.611111 C 2,28.380556 2.6244,29 3.4,29 l 25.2,0 c 0.7756,0 1.4,-0.619444 1.4,-1.388889 z"/>
 <path style="fill:#704774" d="M 30,26.611111 30,4.3888889 C 30,3.6194444 29.3756,3 28.6,3 L 3.4,3 C 2.6244,3 2,3.6194444 2,4.3888889 L 2,26.611111 C 2,27.380556 2.6244,28 3.4,28 l 25.2,0 c 0.7756,0 1.4,-0.619444 1.4,-1.388889 z"/>
 <rect style="opacity:0.2" width="16" height="13" x="8" y="10" rx=".571" ry=".591"/>
 <rect style="fill:#ce6ef0" width="16" height="13" x="8" y="9" rx=".571" ry=".591"/>
 <path style="fill:#ffb94b;fill-rule:evenodd" d="M 9.484375 18 C 8.9786554 18 8.4832719 18.043888 8 18.125 L 8 21.408203 C 8 21.735567 8.2556942 22 8.5722656 22 L 17 22 C 15.373053 19.548468 12.61251 18 9.484375 18 z"/>
 <path style="opacity:0.6" d="m 16.51823,9 c -0.0021,0.028099 0.0012,0.09918 0.01302,0.1244139 0.04112,0.08814 0.165029,0.1008741 0.322916,0.03174 0.140855,-0.061685 0.276009,-0.069598 0.300782,-0.016504 0.02477,0.053098 -0.02356,0.1267558 -0.108073,0.1637694 -0.201514,0.088252 -0.178887,0.1228741 0.303386,0.4532223 0.373359,0.2557454 0.445347,0.2639284 0.841145,0.091407 0.342142,-0.1491308 0.434623,-0.1527591 0.441407,-0.017771 0.005,0.098777 0.06762,0.1472252 0.149739,0.1155275 0.07803,-0.030121 0.05671,0.029231 -0.04688,0.1320309 -0.121955,0.121036 -0.142634,0.230743 -0.05859,0.309765 0.109877,0.103323 0.01012,-0.02554 -0.658854,0.267426 -0.857856,0.375691 -1.675107,0.978118 -2.187284,1.574219 -0.31871,0.370933 -0.917347,1.620363 -0.847657,1.769726 0.0195,0.04181 0.198544,0.0045 0.397135,-0.08252 0.296957,-0.130049 0.360138,-0.213899 0.35547,-0.474804 l -0.0052,-0.317383 0.149739,0.21328 0.151043,0.214552 0.123697,-0.392286 c 0.115315,-0.36561 0.125948,-0.374964 0.175782,-0.145995 0.03309,0.152035 0.118479,0.240386 0.222656,0.233593 0.125648,-0.0082 0.162329,0.04717 0.148437,0.218359 -0.01691,0.208321 0.02091,0.211417 0.416667,0.03808 0.350476,-0.15349 0.424192,-0.26086 0.510201,-0.556055 l 0.105468,-0.366894 0.14323,0.286914 c 0.135248,0.272811 0.144473,0.274111 0.204426,0.03301 0.05493,-0.220837 0.0729,-0.232497 0.139323,-0.09014 0.05531,0.118529 0.164475,0.324505 0.397136,0.222612 0.299239,-0.131047 0.284025,-0.0868 -0.217448,0.660157 -0.295372,0.439966 -0.546464,1.263643 -0.761781,1.830664 -0.374736,0.986825 -0.77335,2.651313 -0.618489,2.583496 0.213851,-0.09366 1.112984,-0.880726 1.082031,-0.94707 -0.0199,-0.04264 -0.04188,-0.221948 -0.04948,-0.398633 -0.01368,-0.317992 -0.01223,-0.320064 0.175781,-0.143457 0.265493,0.249386 0.48063,0.11575 0.471354,-0.293263 -0.0083,-0.364122 0.127012,-0.521776 0.239583,-0.280566 0.05469,0.11722 0.102654,0.10243 0.270833,-0.07998 0.152871,-0.165806 0.170911,-0.295768 0.06901,-0.514162 -0.125552,-0.269088 -0.120091,-0.284552 0.08333,-0.176463 0.230307,0.12237 0.269793,-0.02947 0.168031,-0.247559 -0.03854,-0.08261 0.03851,-0.148872 0.223959,-0.19297 0.155249,-0.03691 0.279839,-0.03277 0.276042,0.0089 -0.06291,0.689514 -0.07441,2.350122 -0.01953,2.968164 0.06609,0.74468 0.440806,2.092601 0.566407,2.037597 0.03041,-0.01331 0.192305,-0.463615 0.359375,-1.00039 0.193365,-0.621248 0.259502,-1.028976 0.179687,-1.123535 -0.09241,-0.109483 -0.06492,-0.176874 0.108073,-0.252637 0.272615,-0.119388 0.407475,-0.656884 0.210938,-0.841699 -0.0958,-0.09008 -0.0789,-0.127952 0.0612,-0.137109 0.242585,-0.01584 0.212948,-0.08118 -0.177084,-0.375781 -0.30782,-0.232497 -0.309131,-0.234609 -0.03255,-0.154883 0.154097,0.04441 0.311139,0.06734 0.348958,0.05077 0.108576,-0.04755 -0.09107,-0.403786 -0.235677,-0.420215 -0.07166,-0.0082 -0.153342,-0.06033 -0.179688,-0.116796 -0.03039,-0.06513 0.02823,-0.08276 0.160158,-0.04951 0.367915,0.09277 0.508418,-0.170918 0.261718,-0.491309 -0.119698,-0.155454 -0.281473,-0.313334 -0.359376,-0.35039 -0.09902,-0.0471 -0.05673,-0.08699 0.138021,-0.133301 0.169643,-0.04034 0.2562,-0.1099 0.223958,-0.179003 -0.02912,-0.06242 0.005,-0.108154 0.07422,-0.100293 0.06921,0.0079 0.159173,-0.185547 0.200521,-0.429103 0.04134,-0.243553 0.103325,-0.455558 0.13672,-0.470995 C 22.997681,14.220825 23.638986,18.354816 23.8,21 l 0.200009,0 0,-6.026857 c -0.476508,-0.992188 -0.980028,-1.845351 -1.434895,-2.30039 -0.569213,-0.569428 -0.595697,-0.652815 -0.16276,-0.524317 0.242439,0.07196 0.25859,0.05814 0.24479,-0.195508 -0.01414,-0.260094 -0.0051,-0.257157 0.214845,0.03682 0.179545,0.239971 0.383705,0.332426 0.945313,0.427831 0.07268,0.01234 0.124948,0.01863 0.192707,0.02919 l 0,-2.347363 c -0.01188,5e-5 -0.0232,-0.0014 -0.03515,-0.0013 l -0.5,0.0038 0.373698,-0.1663075 c 0.05805,-0.025827 0.112105,-0.056395 0.161448,-0.087592 l 0,-0.2577153 c 0,-0.079575 -0.01563,-0.1542729 -0.04296,-0.2234375 -0.0015,-0.00435 -0.0036,-0.00837 -0.0052,-0.012695 C 23.863728,9.1457352 23.663184,9 23.428387,9 l -0.845053,0 -1.078126,0.5230472 -0.0625,-0.3313479 C 21.434922,9.1503131 21.419936,9.0499739 21.407553,9 L 19.73698,9 c 4.97e-4,0.00143 3.89e-4,0.00364 0,0.00384 C 19.73538,9.00449 19.72928,9.00156 19.72396,9 Z m 2.81901,3.037989 c 0.111933,0.01442 0.129306,0.287027 0.0026,0.443066 -0.08333,0.10269 -0.180336,0.199437 -0.214844,0.214551 -0.08966,0.03926 0.06799,-0.603263 0.158855,-0.647462 0.01973,-0.0096 0.03739,-0.01222 0.05339,-0.01016 z"/>
 <path style="fill:#ffffff;opacity:0.1" d="M 3.4003906 3 C 2.6247906 3 2 3.6192274 2 4.3886719 L 2 5.3886719 C 2 4.6192274 2.6247906 4 3.4003906 4 L 28.599609 4 C 29.375209 4 30 4.6192274 30 5.3886719 L 30 4.3886719 C 30 3.6192274 29.375209 3 28.599609 3 L 3.4003906 3 z"/>
 <path style="fill:#ffffff;opacity:0.1" d="M 8.5722656 9 C 8.2556942 9 8 9.2644333 8 9.5917969 L 8 10.591797 C 8 10.264433 8.2556942 10 8.5722656 10 L 23.427734 10 C 23.744306 10 24 10.264433 24 10.591797 L 24 9.5917969 C 24 9.2644333 23.744306 9 23.427734 9 L 8.5722656 9 z"/>
</svg>
